svgs/duotone/speakers.svg

<svg xmlns="http://www.w3.org/2000/svg" viewBox="0 0 640 512"><!--! Font Awesome Pro 6.0.0-alpha3 by @fontawesome - https://fontawesome.com License - https://fontawesome.com/license (Commercial License) --><defs><style>.fa-secondary{opacity:.4}</style></defs><path class="fa-primary" d="M464 160C490.5 160 512 138.5 512 112S490.5 64 464 64S416 85.5 416 112S437.5 160 464 160zM464 224C402.2 224 352 274.2 352 336s50.19 112 112 112s112-50.17 112-112S525.8 224 464 224zM464 400c-35.31 0-64-28.67-64-64s28.69-64 64-64s64 28.67 64 64S499.3 400 464 400zM176 160C202.5 160 224 138.5 224 112S202.5 64 176 64S128 85.5 128 112S149.5 160 176 160zM63.92 336c0 61.83 50.2 112 112 112C207.3 448 235.7 435 256 414.2V257.8C235.7 236.1 207.3 224 175.9 224C114.1 224 63.92 274.2 63.92 336zM240 336c0 35.33-28.69 64-64 64s-64-28.67-64-64s28.69-64 64-64S240 300.7 240 336z"/><path class="fa-secondary" d="M175.9 224C201.1 224 237.8 239.1 256 257.8V48C256.1 33.22 263.4 11.72 272.4 0H48C21.5 0 0 21.5 0 48v416C0 490.5 21.5 512 48 512h224.4C263.4 500.3 256.1 478.8 256 464v-49.79C237.8 432.9 201.1 448 175.9 448c-61.84 0-112-50.17-112-112S114.1 224 175.9 224zM176 64C202.5 64 224 85.5 224 112S202.5 160 176 160S128 138.5 128 112S149.5 64 176 64zM592 0h-256C309.5 0 288 21.5 288 48v416c0 26.5 21.5 48 48 48h256c26.5 0 48-21.5 48-48v-416C640 21.5 618.5 0 592 0zM464 64C490.5 64 512 85.5 512 112S490.5 160 464 160S416 138.5 416 112S437.5 64 464 64zM464 448c-61.81 0-112-50.17-112-112S402.2 224 464 224S576 274.2 576 336S525.8 448 464 448z"/></svg>

<svg xmlns="http://www.w3.org/2000/svg" viewBox="0 0 640 512"><defs><style>.fa-secondary{opacity:.4}</style></defs><path d="M176 224a111.51 111.51 0 0 1 80 33.78V48a79.24 79.24 0 0 1 16.41-48H48A48 48 0 0 0 0 48v416a48 48 0 0 0 48 48h224.41A79.24 79.24 0 0 1 256 464v-49.78A112 112 0 1 1 176 224zm0-160a48 48 0 1 1-48 48 48 48 0 0 1 48-48zM592 0H336a48 48 0 0 0-48 48v416a48 48 0 0 0 48 48h256a48 48 0 0 0 48-48V48a48 48 0 0 0-48-48zM464 64a48 48 0 1 1-48 48 48 48 0 0 1 48-48zm0 384a112 112 0 1 1 112-112 112 112 0 0 1-112 112z" class="fa-secondary"/><path d="M64 336a111.89 111.89 0 0 0 192 78.22V257.78A111.89 111.89 0 0 0 64 336zm176 0a64 64 0 1 1-64-64 64 64 0 0 1 64 64zm224-112a112 112 0 1 0 112 112 112 112 0 0 0-112-112zm0 176a64 64 0 1 1 64-64 64 64 0 0 1-64 64zm0-240a48 48 0 1 0-48-48 48 48 0 0 0 48 48zm-288 0a48 48 0 1 0-48-48 48 48 0 0 0 48 48z" class="fa-primary"/></svg>
